X:1
T:Cajun Waltz
C:Ray Hunley (arranged)
M:3/4
L:1/4
K:D
%%staves{RH1}
V:RH1 clef=treble
P:PART A
|d/2d/2|:"D"d c =c|"G"B3|B3|B B B/2c/2|d c B|"A"A F F|F F G/wG/w|F2 A/2A/2
|"A"A G F|1 E2 F|E2 F|E2 A/2A/2|"D"B A G|F3|"G"G3
|"D"A2 d/2d/2:|2 E3|E2 F|E2 E/2F/2|G F E|F/2E/2 "D"D2|"G7"G F "A"E
|"D"D2 A/2A/2:|3 "A""^Final Ending"E3|E2 F|E2 E/2F/2|"G7"G F "A"E|"D""^Fine"D2||
P:PART B
|"D"A G F|"A"E E F|E2 E/2F/2|E2 E/2F/2|"G7"G F E|F/2E/2 "D"D2|"G7"G F E
|F/2E/2 D A/2A/2|"D"A G F|E E F|"A"E2 E/2F/2|E2 E/2F/2|"G"G F E|"D"F/2E/2 D2
|"G7"G F E|"D""^D.C. al Fine"D2||
